X:1
T:Tarry for the Power
T:Tarry for the Power
T:Josephine H. Sweney, 1899
T:Adam Clark Bane  (1860–1940)
T:Public Domain Courtesy of the Cyber Hymnal™
T:Public Domain Courtesy of the Cyber Hymnal™
C:Josephine H. Sweney, 1899
Z:Public Domain
Z:Courtesy of the Cyber Hymnal™
%%score ( 1 2 ) ( 3 4 )
L:1/8
Q:1/4=90
M:4/4
K:Ab
V:1 treble 
V:2 treble 
V:3 bass 
V:4 bass 
V:1
 [Ec][DB] | [CA]>[CA] [CA][DF] [CE]2 [A,C][B,D] | [CE][EA] [FA]>[_FB] [Ec]3 [Ec] | %3
w: 1.~There’s a|bless- èd prom- ise giv’n By the|Fa- ther up in Heav’n, Oh,|
w: 2.~This great|bless- ing is for you If to|Christ you will be true, But|
w: 3.~He will|cleanse your heart from sin, Make you|pure like Him with- in, So|
w: 4.~He will|com- fort, teach and fill, If to|Him you give your will, Yes,|
w: 5.~Our great|Com- for- ter has come, And the|church must give Him room, Now|
 [EB][EB][EB][Ec] [Ed]<[Ed] [Ec]>[EB] | [Ec]6 [Ec][Ed] | [Ae][Ac] [Ac]>[EB] [EA]2 [EA][EA] | %6
w: tar- ry in the ci- ty for the|power! ’Twas the|prom- ised Ho- ly Ghost Which He|
w: tar- ry in the ci- ty for the|power! Let us|hear His great com- mand, Go, dis-|
w: tar- ry in the ci- ty for the|power! He will|ho- li- ness im- plant, And all|
w: tar- ry in the ci- ty for the|power! He’ll a-|noint you from a- bove, Fill your|
w: tar- ry in the ci- ty for the|power! He’ll bap-|tize with sac- red fire, Keep you|
 [DB][DA] [DA]>[DF] [CE]3 [CE] | [DF][FA][Fd][Af] [Ae]<[Ac] [EB]>[EB] | [EA]6 ||"^Refrain" E2 | %10
w: gave at Pen- te- cost, Oh,|tar- ry in the ci- ty for the|power!||
w: ci- ple all the land, But|tar- ry in the ci- ty for the|power!||
w: grace to you will grant, So|tar- ry in the ci- ty for the|power!|Oh,|
w: heart with per- fect love, Yes,|tar- ry in the ci- ty for the|power!||
w: till you’re called up higher, Now|tar- ry in the ci- ty for the|power!||
 [CA]<[CA] [CA]>[DB] [CA]3 [DB] | [Ec][EA][FA][DF] [CE]3 [CE] | [EA][EA] [EA]>[EB] | %13
w: |||
w: |||
w: tar- ry for the power, The|old, a- noin- ting power, Oh,|tar- ry for an-|
w: |||
w: |||
 [Ac][Ae] [Ae]>[Ac] | [GB]6 E2 | [CA]>[CA] [CA][DF] [CE]3 [CE] | [EB][EB] [EB]>[Ec] [Ae]3 E | %17
w: ||||
w: ||||
w: o- ther Pen- te-|cost! The|Spir- it then will fall, Bap-|tize you one and all, Oh,|
w: ||||
w: ||||
 [DF][FA][Fd][Af] [Ae]<[Ac] [EB]>[EB] | [EA]6 |] %19
w: ||
w: ||
w: tar- ry for the bless- èd Ho- ly|Ghost.|
w: ||
w: ||
V:2
 x2 | x8 | x8 | x8 | x8 | x8 | x8 | x8 | x6 || E2 | x8 | x8 | x4 | x4 | x6 E2 | x8 | x7 E | x8 | %18
 x6 |] %19
V:3
 [A,,A,][A,,A,] | [A,,E,]>[A,,E,] [A,,E,][A,,A,] [A,,A,]2 [A,,E,][A,,E,] | %2
 [A,,A,][C,A,] [D,A,]>[D,A,] [A,,A,]3 [A,,A,] | %3
 [E,G,][E,G,][E,G,][E,A,] [E,B,]<[E,B,] [E,A,]>[E,G,] | A,6 A,[A,B,] | %5
 [A,C][A,E] [A,E]>[A,D] [A,C]2 [C,A,][C,A,] | [D,F,][D,F,] [D,F,]>[D,A,] [A,,A,]3 [A,,A,] | %7
 [D,A,][D,A,][D,A,][D,D] [E,C]<[E,E] [E,D]>[E,D] | [A,,A,C]6 || E,2 | %10
 [A,,E,]<[A,,E,] [A,,E,]>[A,,E,] [A,,E,]3 [A,,A,] | [A,,A,][C,A,][E,A,][F,A,] A,3 A, | %12
 [A,C][A,C] [A,C]>[A,D] | [A,E][A,C] [A,C]>[A,E] | [E,E]6 E,2 | %15
 [A,,E,]>[A,,E,] [A,,E,][A,,A,] [A,,A,]3 [A,,A,] | [A,C][A,C] [A,C]>[A,E] [A,C]3 [C,A,] | %17
 [D,A,][D,A,][D,A,][D,D] [E,C]<[E,E] [E,D]>[E,D] | [A,,A,C]6 |] %19
V:4
 x2 | x8 | x8 | x8 | A,6 A, x | x8 | x8 | x8 | x6 || E,2 | x8 | x4 A,3 A, | x4 | x4 | x6 E,2 | x8 | %16
 x8 | x8 | x6 |] %19

